public/images/svg/012-1-plant.svg

<svg xmlns="http://www.w3.org/2000/svg" style="isolation:isolate" viewBox="0 0 512 512" width="512" height="512"><defs><clipPath id="a"><path d="M0 0h512v512H0z"/></clipPath></defs><g clip-path="url(#a)"><path d="M45.252 31.96a22.83 22.83 0 0 0-4.635-4.636l-9.098-6.791 9.098-6.791a22.78 22.78 0 0 0 4.635-4.636L52.045 0l6.794 9.104a22.83 22.83 0 0 0 4.635 4.636l9.098 6.791-9.098 6.791a22.78 22.78 0 0 0-4.635 4.636l-6.794 9.104-6.793-9.102zm407.909 223.556a22.83 22.83 0 0 0-4.635-4.636l-9.098-6.791 9.098-6.791a22.78 22.78 0 0 0 4.635-4.636l6.794-9.104 6.794 9.104a22.83 22.83 0 0 0 4.635 4.636l9.098 6.791-9.098 6.791a22.78 22.78 0 0 0-4.635 4.636l-6.794 9.104-6.794-9.104z" fill="#FFE44C"/><path d="M249.792 364.699c-4.388 0-7.946-3.101-7.946-6.927V225.927c0-3.827 3.558-6.927 7.946-6.927s7.946 3.101 7.946 6.927v131.844c.001 3.826-3.557 6.928-7.946 6.928z" fill="#966D3C"/><path d="M221.167 229.711C156.494 238.57 96.884 193.323 88.025 128.65l-2.77-20.221a8.478 8.478 0 0 1 7.25-9.551l20.221-2.77c64.673-8.859 124.283 36.387 133.142 101.06l3.921 28.624-28.622 3.921-.001-.002h.001z" fill="#8EC155"/><path d="M132.968 122.494l-2.77-20.221a8.46 8.46 0 0 1 2.477-7.205c-6.562-.21-13.226.119-19.948 1.04l-20.221 2.77a8.478 8.478 0 0 0-7.25 9.551l2.77 20.221c8.859 64.673 68.469 109.92 133.142 101.061l28.624-3.921-.156-1.139c-58.036-.141-108.567-43.024-116.668-102.157z" fill="#84AB4F"/><path d="M248.054 512c-20.084 0-39.118-5.589-53.639-15.743-6.905 3.525-14.325 5.313-22.055 5.313-9.47 0-18.678-2.761-26.665-7.991-6.699 9.913-17.612 15.814-29.297 15.814-19.711 0-35.747-16.615-35.747-37.036 0-20.421 16.036-37.036 35.747-37.036 2.571 0 5.158.292 7.694.872 5.883-22.547 25.659-38.248 48.268-38.248.229 0 .458.006.686.015l.092.003c9.299-24.594 40.032-41.74 74.916-41.74s65.615 17.145 74.916 41.74l.084-.002c.237-.01.465-.016.694-.016 22.609 0 42.383 15.7 48.268 38.247a34.68 34.68 0 0 1 7.694-.871c19.711 0 35.747 16.615 35.747 37.036 0 20.421-16.036 37.036-35.747 37.036-11.685 0-22.598-5.9-29.297-15.814-7.985 5.23-17.194 7.991-26.665 7.991-7.73 0-15.149-1.788-22.055-5.313C287.173 506.411 268.139 512 248.054 512z" fill="#A88D68"/><path d="M152.339 472.356c0-20.421 16.036-37.036 35.747-37.036 2.571 0 5.158.292 7.694.872 5.883-22.547 25.659-38.248 48.268-38.248.229 0 .458.006.686.015l.092.003c5.89-15.575 20.381-28.155 39.071-35.293-10.824-4.133-23.052-6.447-35.844-6.447-34.882 0-65.615 17.146-74.916 41.74l-.092-.003a19.57 19.57 0 0 0-.686-.015c-22.609 0-42.383 15.7-48.268 38.248a34.565 34.565 0 0 0-7.694-.872c-19.711 0-35.747 16.615-35.747 37.036 0 20.421 16.036 37.036 35.747 37.036 11.685 0 22.598-5.9 29.297-15.814 6.057 3.967 12.819 6.51 19.864 7.508-8.058-6.796-13.219-17.148-13.219-28.73z" fill="#916F47"/><path d="M276.677 229.667c64.669 8.89 124.3-36.329 133.19-100.998l2.779-20.219a8.479 8.479 0 0 0-7.245-9.555l-20.22-2.78c-64.669-8.889-124.3 36.329-133.19 100.998l-3.934 28.622 28.621 3.934v-.002h-.001z" fill="#8EC155"/><path d="M364.927 122.492l2.779-20.22c.38-2.764-.625-5.391-2.474-7.206a118.95 118.95 0 0 1 19.948 1.049l20.22 2.78a8.478 8.478 0 0 1 7.245 9.554l-2.779 20.22c-8.89 64.669-68.521 109.888-133.19 100.998l-28.622-3.935.156-1.138c58.037-.113 108.588-42.972 116.717-102.102z" fill="#84AB4F"/></g></svg>

<?xml version="1.0" standalone="no"?><!-- Generator: Gravit.io --><svg xmlns="http://www.w3.org/2000/svg" xmlns:xlink="http://www.w3.org/1999/xlink" style="isolation:isolate" viewBox="0 0 512 512" width="512" height="512"><defs><clipPath id="_clipPath_vf4yTiQwWIXFTBGJTMOhSj09AwY9aYBY"><rect width="512" height="512"/></clipPath></defs><g clip-path="url(#_clipPath_vf4yTiQwWIXFTBGJTMOhSj09AwY9aYBY)"><g id="组"><path d=" M 45.252 31.96 C 43.938 30.2 42.379 28.64 40.617 27.324 L 31.519 20.533 L 40.617 13.742 C 42.38 12.426 43.94 10.865 45.252 9.106 L 52.045 0 L 58.839 9.104 C 60.153 10.864 61.712 12.424 63.474 13.74 L 72.572 20.531 L 63.474 27.322 C 61.711 28.638 60.151 30.199 58.839 31.958 L 52.045 41.062 L 45.252 31.96 L 45.252 31.96 Z " fill="rgb(255,228,76)"/><path d=" M 453.161 255.516 C 451.847 253.756 450.288 252.196 448.526 250.88 L 439.428 244.089 L 448.526 237.298 C 450.289 235.982 451.849 234.421 453.161 232.662 L 459.955 223.558 L 466.749 232.662 C 468.063 234.422 469.622 235.982 471.384 237.298 L 480.482 244.089 L 471.384 250.88 C 469.621 252.196 468.061 253.757 466.749 255.516 L 459.955 264.62 L 453.161 255.516 L 453.161 255.516 Z " fill="rgb(255,228,76)"/></g><path d=" M 249.792 364.699 C 245.404 364.699 241.846 361.598 241.846 357.772 L 241.846 225.927 C 241.846 222.1 245.404 219 249.792 219 C 254.18 219 257.738 222.101 257.738 225.927 L 257.738 357.771 C 257.739 361.597 254.181 364.699 249.792 364.699 Z " fill="rgb(150,109,60)"/><g id="组"><path d=" M 221.167 229.711 C 156.494 238.57 96.884 193.323 88.025 128.65 L 85.255 108.429 C 84.619 103.789 87.865 99.513 92.505 98.878 L 112.726 96.108 C 177.399 87.249 237.009 132.495 245.868 197.168 L 249.789 225.792 L 221.167 229.713 L 221.166 229.711 L 221.167 229.711 Z " fill="rgb(142,193,85)"/><path d=" M 132.968 122.494 L 130.198 102.273 C 129.82 99.508 130.825 96.882 132.675 95.068 C 126.113 94.858 119.449 95.187 112.727 96.108 L 92.506 98.878 C 87.866 99.513 84.62 103.789 85.256 108.429 L 88.026 128.65 C 96.885 193.323 156.495 238.57 221.168 229.711 L 249.792 225.79 L 249.636 224.651 C 191.6 224.51 141.069 181.627 132.968 122.494 Z " fill="rgb(132,171,79)"/></g><path d=" M 248.054 512 C 227.97 512 208.936 506.411 194.415 496.257 C 187.51 499.782 180.09 501.57 172.36 501.57 C 162.89 501.57 153.682 498.809 145.695 493.579 C 138.996 503.492 128.083 509.393 116.398 509.393 C 96.687 509.393 80.651 492.778 80.651 472.357 C 80.651 451.936 96.687 435.321 116.398 435.321 C 118.969 435.321 121.556 435.613 124.092 436.193 C 129.975 413.646 149.751 397.945 172.36 397.945 C 172.589 397.945 172.818 397.951 173.046 397.96 L 173.138 397.963 C 182.437 373.369 213.17 356.223 248.054 356.223 C 282.938 356.223 313.669 373.368 322.97 397.963 L 323.054 397.961 C 323.291 397.951 323.519 397.945 323.748 397.945 C 346.357 397.945 366.131 413.645 372.016 436.192 C 374.542 435.616 377.133 435.321 379.71 435.321 C 399.421 435.321 415.457 451.936 415.457 472.357 C 415.457 492.778 399.421 509.393 379.71 509.393 C 368.025 509.393 357.112 503.493 350.413 493.579 C 342.428 498.809 333.219 501.57 323.748 501.57 C 316.018 501.57 308.599 499.782 301.693 496.257 C 287.173 506.411 268.139 512 248.054 512 Z " fill="rgb(168,141,104)"/><path d=" M 152.339 472.356 C 152.339 451.935 168.375 435.32 188.086 435.32 C 190.657 435.32 193.244 435.612 195.78 436.192 C 201.663 413.645 221.439 397.944 244.048 397.944 C 244.277 397.944 244.506 397.95 244.734 397.959 L 244.826 397.962 C 250.716 382.387 265.207 369.807 283.897 362.669 C 273.073 358.536 260.845 356.222 248.053 356.222 C 213.171 356.222 182.438 373.368 173.137 397.962 L 173.045 397.959 C 172.817 397.951 172.588 397.944 172.359 397.944 C 149.75 397.944 129.976 413.644 124.091 436.192 C 121.553 435.612 118.968 435.32 116.397 435.32 C 96.686 435.32 80.65 451.935 80.65 472.356 C 80.65 492.777 96.686 509.392 116.397 509.392 C 128.082 509.392 138.995 503.492 145.694 493.578 C 151.751 497.545 158.513 500.088 165.558 501.086 C 157.5 494.29 152.339 483.938 152.339 472.356 Z " fill="rgb(145,111,71)"/><g id="组"><path d=" M 276.677 229.667 C 341.346 238.557 400.977 193.338 409.867 128.669 L 412.646 108.45 C 413.284 103.81 410.04 99.533 405.401 98.895 L 385.181 96.115 C 320.512 87.226 260.881 132.444 251.991 197.113 L 248.057 225.735 L 276.678 229.669 L 276.678 229.667 L 276.677 229.667 Z " fill="rgb(142,193,85)"/><path d=" M 364.927 122.492 L 367.706 102.272 C 368.086 99.508 367.081 96.881 365.232 95.066 C 371.795 94.86 378.458 95.191 385.18 96.115 L 405.4 98.895 C 410.04 99.533 413.283 103.81 412.645 108.449 L 409.866 128.669 C 400.976 193.338 341.345 238.557 276.676 229.667 L 248.054 225.732 L 248.21 224.594 C 306.247 224.481 356.798 181.622 364.927 122.492 Z " fill="rgb(132,171,79)"/></g></g></svg>
